X: 21
T: Rokeby
R: jig
Z: 2010 John Chambers <jc:trillian.mit.edu>
F: http://www.asaplive.com/archive/detail.asp?id=R1200008
N: Link from "Andy Turner" <magpielane@dsl.pipex.com> tradtunes 2010-12-17
N: From a tune book which is part of the Cocks Collection held by Northumberland Record Office  at
N: Gosforth, with photocopies at the Black Gate and Morpeth Chantry. The book is a real miscellany
N: of styles, and covers the gamut of 19th century light music. It is anonymous, and evidently the
N: work  of  several  different  hands,  but  nevertheless has some traditional items of interest,
N: including some rare and unique tunes.
M: 6/8
L: 1/8
K: Bb
|: B3  dcB | fdB BAB | cAF FGA | BDE FGA |\
   B3  dcB | fdB BAB | cAF FGA | Bdf b3 :|
|: BDF BDF | dDF BDF | ACF ACF | cCF ACF |\
   BDF BDF | dDF BDF | ACF cCF | BDF B3 :|
|: fed fed | bag fed | bag fed | c2d edc |\
   fed fed | bag fed | fgf fed | c2d "D.Capo"edc |]


%%sep 5 1 500

